img/client/pic1.svg

<svg fill="none" height="30" viewBox="0 0 34 30" width="34" xmlns="http://www.w3.org/2000/svg"><g fill="#e3b873"><path d="m22.4261 9.43274-4.8455-1.45375c-.3637-.10852-.7376-.14673-1.108-.1332v-.01247h-5.8893l-10.443652-3.47053.031575 14.67491 2.997977 1.4986 1.77506-4.3395 2.59308 1.0375.67235-1.6804.97376.9738-.90849.9087c-.31575.3158-.4967.7525-.4967 1.1993 0 .9144.72913 1.6578 1.63603 1.6899.03157.8862.74401 1.5987 1.63021 1.6302.0316.8862.744 1.5986 1.6302 1.6302.0326.9069.7755 1.636 1.6901 1.636.4466 0 .8836-.1809 1.1991-.4967l.9087-.9084.3651.3651c.3158.3157.7525.4967 1.1993.4967.9146 0 1.6578-.7292 1.6899-1.6361.8862-.0316 1.5986-.744 1.6302-1.6302.8862-.0315 1.5986-.744 1.6302-1.6302.9069-.0326 1.6363-.7755 1.6363-1.6899 0-.0772-.0125-.1533-.0228-.23l.7798-.7798.6301 1.2608 3.4133-1.7068 2.0626 3.938 2.3747-1.5824v-14.04478zm-19.81994 9.60706-1.3492-.6747-.02733-12.49496 5.95455 1.9791zm4.32596-3.2184-1.57686-.6305 2.86265-6.99832 1.55776.51793zm1.93294 2.8143c0-.1605.06447-.3173.17803-.4311l.95546-.9552c.11355-.1136.27065-.1783.43085-.1783.336 0 .6092.2735.6092.6092 0 .1602-.0647.3173-.1783.4309l-.95515.9554c-.11356.1136-.27064.1781-.4309.1781-.3359 0-.60919-.2733-.60919-.609zm1.63014 1.6302c0-.1605.0645-.3173.1781-.4311l.9554-.9552c.1136-.1136.2707-.1783.4309-.1783.3359 0 .6092.2735.6092.6092 0 .1602-.0647.3173-.1783.4309l-.9552.9554c-.1135.1136-.2706.1781-.4309.1781-.3359 0-.6092-.2733-.6092-.609zm1.6302 1.6302c0-.1605.0645-.3173.1781-.4311l.9554-.9552c.1136-.1136.2707-.1783.4309-.1783.3359 0 .6092.2735.6092.6092 0 .1602-.0647.3173-.1783.4309l-.9552.9554c-.1135.1136-.2706.1781-.4309.1781-.3359 0-.6092-.2733-.6092-.609zm3.6255 1.1057-.9552.9554c-.1135.1136-.2706.1781-.4309.1781-.3359 0-.6092-.2733-.6092-.609 0-.1605.0645-.3173.1781-.4311l.9554-.9552c.1136-.1136.2707-.1783.4309-.1783.3359 0 .6092.2735.6092.6092 0 .1602-.0647.3173-.1783.4309zm7.1767-4.3005c-.1603 0-.3173-.0645-.4309-.1781l-4.5531-4.5533-.7684.7684 4.5531 4.5531c.1136.1138.1783.2706.1783.4311 0 .3357-.2733.609-.6092.609-.1603 0-.3173-.0645-.4309-.1781l-4.5531-4.5533-.7684.7684 4.5531 4.5531c.1136.1138.1783.2706.1783.4311 0 .3357-.2733.609-.6092.609-.1603 0-.3173-.0645-.4309-.1781l-4.5531-4.5533-.7684.7684 4.5531 4.5531c.1136.1138.1783.2706.1783.4311 0 .3357-.2733.609-.6092.609-.1602 0-.3173-.0645-.4309-.1781l-.6129-.6132c.0109-.0758.0228-.152.0228-.2297 0-.9146-.7294-1.6578-1.6363-1.6899-.0315-.8862-.744-1.5986-1.6302-1.6302-.0315-.8862-.744-1.5986-1.6302-1.6302-.0326-.9069-.7753-1.6363-1.6899-1.6363-.0772 0-.1533.0125-.2297.0228l-1.55142-1.5514 2.21472-5.53558h3.211l-1.9953 1.99558c-.3207.32-.4967.7461-.4967 1.1993 0 .935.7607 1.6957 1.696 1.6957.4466 0 .8836-.181 1.1991-.4967l1.4397-1.44c.2945-.2934.8132-.3048 1.1199-.0238l1.2704 1.1645c.4222.3869.8913.7087 1.3933.9608l3.6581 3.6857c.1136.1138.1783.2706.1783.4311 0 .3357-.2733.609-.6092.609zm1.1526-1.8552-2.2336-2.2506c.1996.0189.4007.0303.6034.0303v-1.0868c-1.2651 0-2.4758-.471-3.4082-1.3259l-1.2706-1.164c-.7172-.6585-1.9338-.6323-2.6223.0571l-1.4394 1.4397c-.1141.113-.2712.178-.4315.178-.3359 0-.6092-.2733-.6092-.6089 0-.1632.0629-.3158.1781-.4312l2.0714-2.07117c.6087-.60867 1.5227-.8403 2.3498-.59248l4.8004 1.43995 2.7989 5.5987zm2.4164.0393-3.2947-6.5898 2.4063-.94406 3.3114 6.32206zm6.278 1.5253-.886.5907-5.2626-10.04865 6.1486-2.41159z"/><circle cx="19.6667" cy="1.57397" r=".485591"/><circle cx="7.40991" cy="24.5032" r=".485591"/><circle cx="9.46801" cy="26.1916" r=".485591"/><circle cx="11.8166" cy="27.4304" r=".485591"/><circle cx="14.3655" cy="28.2229" r=".485591"/><circle cx="22.2141" cy="2.34692" r=".485591"/><circle cx="24.5632" cy="3.60131" r=".485591"/></g><path d="m26.8305 2.89941v2.8017h-2.8334" stroke="#e3b873" stroke-linecap="round" stroke-linejoin="round"/><path d="m5.01039 24.1865v-2.2668h2.26402" stroke="#e3b873" stroke-linecap="round" stroke-linejoin="round"/><path d="m7.80078 4.88243c1.53512-1.33582 2.51162-1.95038 4.35112-2.66863 1.9514-.76194 3.2718-.94086 5.3922-.94085" stroke="#e3b873" stroke-linecap="round"/><path d="m28.4046 22.3709c-1.1413 1.7802-3.267 3.5184-4.9957 4.4728-1.8339 1.0126-3.7987 1.5831-6.4158 1.7195" stroke="#e3b873" stroke-linecap="round"/></svg>

<svg width="34" height="30" viewBox="0 0 34 30" fill="none" xmlns="http://www.w3.org/2000/svg">
<path d="M22.4261 9.43274L17.5806 7.97899C17.2169 7.87047 16.843 7.83226 16.4726 7.84579V7.83332H10.5833L0.139648 4.36279L0.171223 19.0377L3.1692 20.5363L4.94426 16.1968L7.53734 17.2343L8.20969 15.5539L9.18345 16.5277L8.27496 17.4364C7.95921 17.7522 7.77826 18.1889 7.77826 18.6357C7.77826 19.5501 8.50739 20.2935 9.41429 20.3256C9.44586 21.2118 10.1583 21.9243 11.0445 21.9558C11.0761 22.842 11.7885 23.5544 12.6747 23.586C12.7073 24.4929 13.4502 25.222 14.3648 25.222C14.8114 25.222 15.2484 25.0411 15.5639 24.7253L16.4726 23.8169L16.8377 24.182C17.1535 24.4977 17.5902 24.6787 18.037 24.6787C18.9516 24.6787 19.6948 23.9495 19.7269 23.0426C20.6131 23.011 21.3255 22.2986 21.3571 21.4124C22.2433 21.3809 22.9557 20.6684 22.9873 19.7822C23.8942 19.7496 24.6236 19.0067 24.6236 18.0923C24.6236 18.0151 24.6111 17.939 24.6008 17.8623L25.3806 17.0825L26.0107 18.3433L29.424 16.6365L31.4866 20.5745L33.8613 18.9921V4.94732L22.4261 9.43274ZM2.60616 19.0398L1.25696 18.3651L1.22963 5.87014L7.18418 7.84924L2.60616 19.0398ZM6.93212 15.8214L5.35526 15.1909L8.21791 8.19258L9.77567 8.71051L6.93212 15.8214ZM8.86506 18.6357C8.86506 18.4752 8.92953 18.3184 9.04309 18.2046L9.99855 17.2494C10.1121 17.1358 10.2692 17.0711 10.4294 17.0711C10.7654 17.0711 11.0386 17.3446 11.0386 17.6803C11.0386 17.8405 10.9739 17.9976 10.8603 18.1112L9.90515 19.0666C9.79159 19.1802 9.63451 19.2447 9.47425 19.2447C9.13835 19.2447 8.86506 18.9714 8.86506 18.6357ZM10.4952 20.2659C10.4952 20.1054 10.5597 19.9486 10.6733 19.8348L11.6287 18.8796C11.7423 18.766 11.8994 18.7013 12.0596 18.7013C12.3955 18.7013 12.6688 18.9748 12.6688 19.3105C12.6688 19.4707 12.6041 19.6278 12.4905 19.7414L11.5353 20.6968C11.4218 20.8104 11.2647 20.8749 11.1044 20.8749C10.7685 20.8749 10.4952 20.6016 10.4952 20.2659ZM12.1254 21.8961C12.1254 21.7356 12.1899 21.5788 12.3035 21.465L13.2589 20.5098C13.3725 20.3962 13.5296 20.3315 13.6898 20.3315C14.0257 20.3315 14.299 20.605 14.299 20.9407C14.299 21.1009 14.2343 21.258 14.1207 21.3716L13.1655 22.327C13.052 22.4406 12.8949 22.5051 12.7346 22.5051C12.3987 22.5051 12.1254 22.2318 12.1254 21.8961ZM15.7509 23.0018L14.7957 23.9572C14.6822 24.0708 14.5251 24.1353 14.3648 24.1353C14.0289 24.1353 13.7556 23.862 13.7556 23.5263C13.7556 23.3658 13.8201 23.209 13.9337 23.0952L14.8891 22.14C15.0027 22.0264 15.1598 21.9617 15.32 21.9617C15.6559 21.9617 15.9292 22.2352 15.9292 22.5709C15.9292 22.7311 15.8645 22.8882 15.7509 23.0018ZM22.9276 18.7013C22.7673 18.7013 22.6103 18.6368 22.4967 18.5232L17.9436 13.9699L17.1752 14.7383L21.7283 19.2914C21.8419 19.4052 21.9066 19.562 21.9066 19.7225C21.9066 20.0582 21.6333 20.3315 21.2974 20.3315C21.1371 20.3315 20.9801 20.267 20.8665 20.1534L16.3134 15.6001L15.545 16.3685L20.0981 20.9216C20.2117 21.0354 20.2764 21.1922 20.2764 21.3527C20.2764 21.6884 20.0031 21.9617 19.6672 21.9617C19.5069 21.9617 19.3499 21.8972 19.2363 21.7836L14.6832 17.2303L13.9148 17.9987L18.4679 22.5518C18.5815 22.6656 18.6462 22.8224 18.6462 22.9829C18.6462 23.3186 18.3729 23.5919 18.037 23.5919C17.8768 23.5919 17.7197 23.5274 17.6061 23.4138L16.9932 22.8006C17.0041 22.7248 17.016 22.6486 17.016 22.5709C17.016 21.6563 16.2866 20.9131 15.3797 20.881C15.3482 19.9948 14.6357 19.2824 13.7495 19.2508C13.718 18.3646 13.0055 17.6522 12.1193 17.6206C12.0867 16.7137 11.344 15.9843 10.4294 15.9843C10.3522 15.9843 10.2761 15.9968 10.1997 16.0071L8.64828 14.4557L10.863 8.92012H14.074L12.0787 10.9157C11.758 11.2357 11.582 11.6618 11.582 12.115C11.582 13.05 12.3427 13.8107 13.278 13.8107C13.7246 13.8107 14.1616 13.6297 14.4771 13.314L15.9168 11.874C16.2113 11.5806 16.73 11.5692 17.0367 11.8502L18.3071 13.0147C18.7293 13.4016 19.1984 13.7234 19.7004 13.9755L23.3585 17.6612C23.4721 17.775 23.5368 17.9318 23.5368 18.0923C23.5368 18.428 23.2635 18.7013 22.9276 18.7013ZM24.0802 16.8461L21.8466 14.5955C22.0462 14.6144 22.2473 14.6258 22.45 14.6258V13.539C21.1849 13.539 19.9742 13.068 19.0418 12.2131L17.7712 11.0491C17.054 10.3906 15.8374 10.4168 15.1489 11.1062L13.7095 12.5459C13.5954 12.6589 13.4383 12.7239 13.278 12.7239C12.9421 12.7239 12.6688 12.4506 12.6688 12.115C12.6688 11.9518 12.7317 11.7992 12.8469 11.6838L14.9183 9.61263C15.527 9.00396 16.441 8.77233 17.2681 9.02015L22.0685 10.4601L24.8674 16.0588L24.0802 16.8461ZM26.4966 16.8854L23.2019 10.2956L25.6082 9.35154L28.9196 15.6736L26.4966 16.8854ZM32.7746 18.4107L31.8886 19.0014L26.626 8.95275L32.7746 6.54116V18.4107Z" fill="#E3B873"/>
<circle cx="19.6667" cy="1.57397" r="0.485591" fill="#E3B873"/>
<circle cx="7.40991" cy="24.5032" r="0.485591" fill="#E3B873"/>
<circle cx="9.46801" cy="26.1916" r="0.485591" fill="#E3B873"/>
<circle cx="11.8166" cy="27.4304" r="0.485591" fill="#E3B873"/>
<circle cx="14.3655" cy="28.2229" r="0.485591" fill="#E3B873"/>
<circle cx="22.2141" cy="2.34692" r="0.485591" fill="#E3B873"/>
<circle cx="24.5632" cy="3.60131" r="0.485591" fill="#E3B873"/>
<path d="M26.8305 2.89941V5.70111H23.9971" stroke="#E3B873" stroke-linecap="round" stroke-linejoin="round"/>
<path d="M5.01039 24.1865L5.01039 21.9197L7.27441 21.9197" stroke="#E3B873" stroke-linecap="round" stroke-linejoin="round"/>
<path d="M7.80078 4.88243C9.3359 3.54661 10.3124 2.93205 12.1519 2.2138C14.1033 1.45186 15.4237 1.27294 17.5441 1.27295" stroke="#E3B873" stroke-linecap="round"/>
<path d="M28.4046 22.3709C27.2633 24.1511 25.1376 25.8893 23.4089 26.8437C21.575 27.8563 19.6102 28.4268 16.9931 28.5632" stroke="#E3B873" stroke-linecap="round"/>
</svg>
